X: 20881
T: Barley Cakes
%R: jig
B: James Oswald "The Caledonian Pocket Companion" v.2 p.88 #1
Z: 2019 John Chambers <jc:trillian.mit.edu>
M: 6/8
L: 1/8
K: G
"_Brisk"g |\
B2G (B/c/d)B | A2F (A/B/c)A | TB2G (B/c/d)B | d3 g3 |\
TB2G (B/c/d)B | A2F (A/B/c)A | (B/c/d)B (A/B/c)A | G3 G2 :|
|: f |\
gag fgf | Te2d B3 | gag f2g | a3 d3 |\
gag fgf | e2G FED | EFG AGF | G3- G2 :|
|: g |\
BBB TB2g | AAA TA2g | BGB dBe | d3 g2d |\
BBB gdB | AAA acA | (B/c/d)B cAF | G3- G2 :|
|: f |\
gbg faf | ege dBd | gfg efg | a3 d3 |\
gbg faf | efg afd | (e/f/g)e (f/g/a)f | g3 G2 :|


